X:11
T:Earl of Marshall's Reel
S:Petrie's Second Collection of Strathspey Reels and Country Dances &c.
Z:Steve Wyrick , 6/5/04
N:Petrie's Second Collection, page 4
% Gore's Index gives earliest publication as James Aird's
% Selection of Scotch, English, Irish and Foreign Airs" v4 ca 1790
L:1/8
M:C|
R:Reel
K:F
A|F2FA         cAAB   |(A/B/c)(FA) cAAf|F2FA          cAAc|dfcA G/G/G G:|
g|(f/g/a) (fc) d2 (df)| cfAf       cfAg|(a/g/f/e/ f)c d2df|cAfA G/G/G Gg|
  (f/g/a) (fc) d2 (df)| cfAf       cfAg|(a/g/f/e/ f)c defd|cAfA G/G/G G|]
